X:8
T:David's Jig
R:jig
C:Natalie MacMaster
D:Natalie MacMaster, LIVE, 2002
Z:Paul Stewart Cranford (P.S.C.), <http://www.cranfordpub.com>
L:1/8
Q:266
M:6/8
K:Gdor
G2 D GAB|AFD G2 B|AFF dFF|cBA Acf|
G2 D GAB|AFD G2 g|gfd cdf|cdf cAF|
G2 D GAB|AFD G2 B|AFF dFc|FBF Acf|
G2 D GAB|AFD G2 g|gfd cdf|cdf cdf||
|:g2 d gab|afd g2 a|fcc acc|gcc fga|
[1g2 d gab|afd g2 a|fgf cdf|cAF G2 a:|
[2gag gfc|dff fcA|Bdd dBG|Acc cAF|]
W:Copyrights - Published by MacMaster Music (SOCAN)
